src/assets/spades_9.svg

<?xml version="1.0" encoding="UTF-8"?>
<svg xmlns="http://www.w3.org/2000/svg" xmlns:xlink="http://www.w3.org/1999/xlink" width="99px" height="140px" viewBox="0 0 99 140" version="1.1">
<g id="surface1">
<path style="fill-rule:nonzero;fill:rgb(100%,100%,100%);fill-opacity:1;stroke-width:0.755906;stroke-linecap:butt;stroke-linejoin:miter;stroke:rgb(50.196078%,50.196078%,50.196078%);stroke-opacity:1;stroke-miterlimit:4;" d="M 9.297585 719.743103 L 224.702415 719.743103 C 229.632812 719.743103 233.621449 723.747651 233.621449 728.681329 L 233.621449 1043.042991 C 233.621449 1047.976669 229.632812 1051.981217 224.702415 1051.981217 L 9.297585 1051.981217 C 4.367188 1051.981217 0.378551 1047.976669 0.378551 1043.042991 L 0.378551 728.681329 C 0.378551 723.747651 4.367188 719.743103 9.297585 719.743103 Z M 9.297585 719.743103 " transform="matrix(0.423077,0,0,0.42042,0,-302.434542)"/>
<path style=" stroke:none;fill-rule:nonzero;fill:rgb(0%,0%,0%);fill-opacity:1;" d="M 19.339844 67.882812 C 19.339844 67.179688 19.300781 66.675781 19.300781 65.972656 C 20.757812 65.972656 22.339844 65.972656 23.796875 65.972656 C 23.796875 64.304688 23.796875 64.1875 23.796875 62.519531 C 20.949219 62.613281 17.867188 62.820312 15.199219 61.652344 C 13.136719 60.527344 12.566406 57.90625 12.984375 55.753906 C 13.339844 53.320312 14.699219 51.164062 16.472656 49.5 C 18.78125 47.046875 21.726562 45.386719 24.800781 44.054688 C 27.9375 45.410156 30.949219 47.121094 33.285156 49.640625 C 35.394531 51.609375 36.796875 54.386719 36.753906 57.296875 C 36.796875 59.398438 35.488281 61.617188 33.328125 62.078125 C 30.914062 62.742188 28.46875 62.625 25.988281 62.519531 C 25.988281 64.1875 25.988281 64.304688 25.988281 65.972656 C 27.445312 65.972656 28.785156 65.972656 30.242188 65.972656 C 30.242188 66.675781 30.28125 67.179688 30.28125 67.882812 C 26.941406 67.859375 22.945312 67.859375 19.339844 67.882812 Z M 19.339844 67.882812 "/>
<path style=" stroke:none;fill-rule:nonzero;fill:rgb(0%,0%,0%);fill-opacity:1;" d="M 19.339844 72.117188 C 19.339844 72.820312 19.300781 73.324219 19.300781 74.027344 C 20.757812 74.027344 22.339844 74.027344 23.796875 74.027344 C 23.796875 75.695312 23.796875 75.8125 23.796875 77.480469 C 20.949219 77.386719 17.867188 77.179688 15.199219 78.347656 C 13.136719 79.472656 12.566406 82.09375 12.984375 84.246094 C 13.339844 86.679688 14.699219 88.835938 16.472656 90.5 C 18.78125 92.953125 21.726562 94.613281 24.800781 95.945312 C 27.9375 94.589844 30.949219 92.878906 33.285156 90.359375 C 35.394531 88.390625 36.796875 85.613281 36.753906 82.703125 C 36.796875 80.601562 35.488281 78.382812 33.328125 77.921875 C 30.914062 77.257812 28.46875 77.375 25.988281 77.480469 C 25.988281 75.8125 25.988281 75.695312 25.988281 74.027344 C 27.445312 74.027344 28.785156 74.027344 30.242188 74.027344 C 30.242188 73.324219 30.28125 72.820312 30.28125 72.117188 C 26.941406 72.140625 22.945312 72.140625 19.339844 72.117188 Z M 19.339844 72.117188 "/>
<path style=" stroke:none;fill-rule:nonzero;fill:rgb(0%,0%,0%);fill-opacity:1;" d="M 68.730469 67.882812 C 68.730469 67.179688 68.691406 66.675781 68.691406 65.972656 C 70.148438 65.972656 71.730469 65.972656 73.1875 65.972656 C 73.1875 64.304688 73.1875 64.1875 73.1875 62.519531 C 70.339844 62.613281 67.257812 62.820312 64.589844 61.652344 C 62.527344 60.527344 61.957031 57.90625 62.375 55.753906 C 62.730469 53.320312 64.089844 51.164062 65.863281 49.5 C 68.171875 47.046875 71.117188 45.386719 74.191406 44.054688 C 77.328125 45.410156 80.339844 47.121094 82.675781 49.640625 C 84.78125 51.609375 86.1875 54.386719 86.144531 57.296875 C 86.1875 59.398438 84.878906 61.617188 82.71875 62.078125 C 80.304688 62.742188 77.859375 62.625 75.378906 62.519531 C 75.378906 64.1875 75.378906 64.304688 75.378906 65.972656 C 76.835938 65.972656 78.171875 65.972656 79.632812 65.972656 C 79.632812 66.675781 79.671875 67.179688 79.671875 67.882812 C 76.332031 67.859375 72.335938 67.859375 68.730469 67.882812 Z M 68.730469 67.882812 "/>
<path style=" stroke:none;fill-rule:nonzero;fill:rgb(0%,0%,0%);fill-opacity:1;" d="M 68.730469 39.820312 C 68.730469 39.117188 68.691406 38.613281 68.691406 37.910156 C 70.148438 37.910156 71.730469 37.910156 73.1875 37.910156 C 73.1875 36.242188 73.1875 36.125 73.1875 34.457031 C 70.339844 34.550781 67.257812 34.757812 64.589844 33.589844 C 62.527344 32.464844 61.957031 29.84375 62.375 27.691406 C 62.730469 25.257812 64.089844 23.101562 65.863281 21.4375 C 68.171875 18.984375 71.117188 17.328125 74.191406 15.992188 C 77.328125 17.347656 80.339844 19.058594 82.675781 21.578125 C 84.78125 23.546875 86.1875 26.324219 86.144531 29.234375 C 86.1875 31.335938 84.878906 33.554688 82.71875 34.015625 C 80.304688 34.679688 77.859375 34.5625 75.378906 34.457031 C 75.378906 36.125 75.378906 36.242188 75.378906 37.910156 C 76.835938 37.910156 78.171875 37.910156 79.632812 37.910156 C 79.632812 38.613281 79.671875 39.117188 79.671875 39.820312 C 76.332031 39.796875 72.335938 39.796875 68.730469 39.820312 Z M 68.730469 39.820312 "/>
<path style=" stroke:none;fill-rule:nonzero;fill:rgb(0%,0%,0%);fill-opacity:1;" d="M 19.339844 39.820312 C 19.339844 39.117188 19.300781 38.613281 19.300781 37.910156 C 20.757812 37.910156 22.339844 37.910156 23.796875 37.910156 C 23.796875 36.242188 23.796875 36.125 23.796875 34.457031 C 20.949219 34.550781 17.867188 34.757812 15.199219 33.589844 C 13.136719 32.464844 12.566406 29.84375 12.984375 27.691406 C 13.339844 25.257812 14.699219 23.101562 16.472656 21.4375 C 18.78125 18.984375 21.726562 17.328125 24.800781 15.992188 C 27.9375 17.347656 30.949219 19.058594 33.285156 21.578125 C 35.394531 23.546875 36.796875 26.324219 36.753906 29.234375 C 36.796875 31.335938 35.488281 33.554688 33.328125 34.015625 C 30.914062 34.679688 28.46875 34.5625 25.988281 34.457031 C 25.988281 36.125 25.988281 36.242188 25.988281 37.910156 C 27.445312 37.910156 28.785156 37.910156 30.242188 37.910156 C 30.242188 38.613281 30.28125 39.117188 30.28125 39.820312 C 26.941406 39.796875 22.945312 39.796875 19.339844 39.820312 Z M 19.339844 39.820312 "/>
<path style=" stroke:none;fill-rule:nonzero;fill:rgb(0%,0%,0%);fill-opacity:1;" d="M 44.035156 81.914062 C 44.035156 81.210938 43.996094 80.707031 43.996094 80.003906 C 45.453125 80.003906 47.035156 80.003906 48.492188 80.003906 C 48.492188 78.335938 48.492188 78.21875 48.492188 76.550781 C 45.644531 76.644531 42.5625 76.851562 39.894531 75.683594 C 37.832031 74.558594 37.261719 71.9375 37.679688 69.785156 C 38.035156 67.351562 39.394531 65.191406 41.167969 63.53125 C 43.476562 61.078125 46.421875 59.417969 49.496094 58.085938 C 52.632812 59.441406 55.644531 61.152344 57.980469 63.671875 C 60.089844 65.640625 61.492188 68.417969 61.449219 71.328125 C 61.492188 73.429688 60.183594 75.648438 58.023438 76.105469 C 55.609375 76.773438 53.164062 76.65625 50.683594 76.550781 C 50.683594 78.21875 50.683594 78.335938 50.683594 80.003906 C 52.140625 80.003906 53.480469 80.003906 54.9375 80.003906 C 54.9375 80.707031 54.976562 81.210938 54.976562 81.914062 C 51.636719 81.890625 47.640625 81.890625 44.035156 81.914062 Z M 44.035156 81.914062 "/>
<path style=" stroke:none;fill-rule:nonzero;fill:rgb(0%,0%,0%);fill-opacity:1;" d="M 5.457031 25.789062 C 5.457031 25.554688 5.445312 25.386719 5.445312 25.152344 C 5.929688 25.152344 6.457031 25.152344 6.945312 25.152344 C 6.945312 24.597656 6.945312 24.558594 6.945312 24 C 5.996094 24.03125 4.96875 24.101562 4.078125 23.710938 C 3.390625 23.335938 3.199219 22.464844 3.339844 21.746094 C 3.457031 20.933594 3.910156 20.214844 4.503906 19.660156 C 5.273438 18.84375 6.253906 18.289062 7.277344 17.847656 C 8.324219 18.296875 9.328125 18.867188 10.105469 19.707031 C 10.808594 20.363281 11.277344 21.289062 11.261719 22.261719 C 11.277344 22.960938 10.839844 23.699219 10.121094 23.851562 C 9.316406 24.074219 8.5 24.035156 7.671875 24 C 7.671875 24.558594 7.671875 24.597656 7.671875 25.152344 C 8.160156 25.152344 8.605469 25.152344 9.09375 25.152344 C 9.09375 25.386719 9.105469 25.554688 9.105469 25.789062 C 7.992188 25.78125 6.660156 25.78125 5.457031 25.789062 Z M 5.457031 25.789062 "/>
<path style=" stroke:none;fill-rule:nonzero;fill:rgb(0%,0%,0%);fill-opacity:1;" d="M 19.339844 100.179688 C 19.339844 100.882812 19.300781 101.386719 19.300781 102.089844 C 20.757812 102.089844 22.339844 102.089844 23.796875 102.089844 C 23.796875 103.757812 23.796875 103.875 23.796875 105.542969 C 20.949219 105.449219 17.867188 105.242188 15.199219 106.410156 C 13.136719 107.535156 12.566406 110.15625 12.984375 112.308594 C 13.339844 114.742188 14.699219 116.898438 16.472656 118.5625 C 18.78125 121.015625 21.726562 122.671875 24.800781 124.007812 C 27.9375 122.652344 30.949219 120.941406 33.285156 118.421875 C 35.394531 116.453125 36.796875 113.675781 36.753906 110.765625 C 36.796875 108.664062 35.488281 106.445312 33.328125 105.984375 C 30.914062 105.320312 28.46875 105.4375 25.988281 105.542969 C 25.988281 103.875 25.988281 103.757812 25.988281 102.089844 C 27.445312 102.089844 28.785156 102.089844 30.242188 102.089844 C 30.242188 101.386719 30.28125 100.882812 30.28125 100.179688 C 26.941406 100.203125 22.945312 100.203125 19.339844 100.179688 Z M 19.339844 100.179688 "/>
<path style=" stroke:none;fill-rule:nonzero;fill:rgb(0%,0%,0%);fill-opacity:1;" d="M 68.730469 100.179688 C 68.730469 100.882812 68.691406 101.386719 68.691406 102.089844 C 70.148438 102.089844 71.730469 102.089844 73.1875 102.089844 C 73.1875 103.757812 73.1875 103.875 73.1875 105.542969 C 70.339844 105.449219 67.257812 105.242188 64.589844 106.410156 C 62.527344 107.535156 61.957031 110.15625 62.375 112.308594 C 62.730469 114.742188 64.089844 116.898438 65.863281 118.5625 C 68.171875 121.015625 71.117188 122.671875 74.191406 124.007812 C 77.328125 122.652344 80.339844 120.941406 82.675781 118.421875 C 84.78125 116.453125 86.1875 113.675781 86.144531 110.765625 C 86.1875 108.664062 84.878906 106.445312 82.71875 105.984375 C 80.304688 105.320312 77.859375 105.4375 75.378906 105.542969 C 75.378906 103.875 75.378906 103.757812 75.378906 102.089844 C 76.835938 102.089844 78.171875 102.089844 79.632812 102.089844 C 79.632812 101.386719 79.671875 100.882812 79.671875 100.179688 C 76.332031 100.203125 72.335938 100.203125 68.730469 100.179688 Z M 68.730469 100.179688 "/>
<path style=" stroke:none;fill-rule:nonzero;fill:rgb(0%,0%,0%);fill-opacity:1;" d="M 68.730469 72.117188 C 68.730469 72.820312 68.691406 73.324219 68.691406 74.027344 C 70.148438 74.027344 71.730469 74.027344 73.1875 74.027344 C 73.1875 75.695312 73.1875 75.8125 73.1875 77.480469 C 70.339844 77.386719 67.257812 77.179688 64.589844 78.347656 C 62.527344 79.472656 61.957031 82.09375 62.375 84.246094 C 62.730469 86.679688 64.089844 88.835938 65.863281 90.5 C 68.171875 92.953125 71.117188 94.613281 74.191406 95.945312 C 77.328125 94.589844 80.339844 92.878906 82.675781 90.359375 C 84.78125 88.390625 86.1875 85.613281 86.144531 82.703125 C 86.1875 80.601562 84.878906 78.382812 82.71875 77.921875 C 80.304688 77.257812 77.859375 77.375 75.378906 77.480469 C 75.378906 75.8125 75.378906 75.695312 75.378906 74.027344 C 76.835938 74.027344 78.171875 74.027344 79.632812 74.027344 C 79.632812 73.324219 79.671875 72.820312 79.671875 72.117188 C 76.332031 72.140625 72.335938 72.140625 68.730469 72.117188 Z M 68.730469 72.117188 "/>
<path style=" stroke:none;fill-rule:nonzero;fill:rgb(0%,0%,0%);fill-opacity:1;" d="M 89.898438 114.210938 C 89.898438 114.445312 89.886719 114.613281 89.886719 114.847656 C 90.371094 114.847656 90.898438 114.847656 91.386719 114.847656 C 91.386719 115.402344 91.386719 115.441406 91.386719 116 C 90.4375 115.96875 89.410156 115.898438 88.519531 116.289062 C 87.832031 116.664062 87.640625 117.535156 87.78125 118.253906 C 87.898438 119.066406 88.351562 119.785156 88.945312 120.339844 C 89.714844 121.15625 90.695312 121.710938 91.71875 122.152344 C 92.765625 121.703125 93.769531 121.132812 94.546875 120.292969 C 95.25 119.636719 95.71875 118.710938 95.703125 117.738281 C 95.71875 117.039062 95.28125 116.300781 94.5625 116.148438 C 93.757812 115.925781 92.941406 115.964844 92.113281 116 C 92.113281 115.441406 92.113281 115.402344 92.113281 114.847656 C 92.601562 114.847656 93.046875 114.847656 93.535156 114.847656 C 93.535156 114.613281 93.546875 114.445312 93.546875 114.210938 C 92.433594 114.21875 91.101562 114.21875 89.898438 114.210938 Z M 89.898438 114.210938 "/>
<path style=" stroke:none;fill-rule:nonzero;fill:rgb(0%,0%,0%);fill-opacity:1;" d="M 11.261719 9.066406 C 11.261719 10.761719 10.964844 12.140625 10.371094 13.203125 C 9.628906 14.53125 8.484375 15.199219 6.9375 15.199219 C 6.035156 15.199219 5.289062 15.019531 4.699219 14.65625 C 3.988281 14.210938 3.632812 13.554688 3.632812 12.691406 C 3.632812 12.5 3.765625 12.40625 4.027344 12.40625 L 5.214844 12.40625 C 5.367188 12.40625 5.5 12.496094 5.605469 12.671875 C 5.765625 12.9375 5.890625 13.109375 5.976562 13.183594 C 6.195312 13.363281 6.515625 13.453125 6.9375 13.453125 C 7.648438 13.453125 8.203125 13.117188 8.597656 12.445312 C 8.910156 11.90625 9.082031 11.238281 9.121094 10.449219 C 8.496094 10.953125 7.746094 11.203125 6.875 11.203125 C 5.765625 11.203125 4.882812 10.808594 4.226562 10.019531 C 3.605469 9.277344 3.296875 8.335938 3.296875 7.191406 C 3.296875 5.988281 3.636719 5.039062 4.316406 4.339844 C 4.996094 3.636719 5.925781 3.285156 7.105469 3.285156 C 9.878906 3.285156 11.261719 5.214844 11.261719 9.066406 Z M 9.074219 7.242188 C 9.074219 6.652344 8.914062 6.148438 8.597656 5.738281 C 8.25 5.285156 7.796875 5.054688 7.234375 5.054688 C 6.65625 5.054688 6.199219 5.277344 5.855469 5.722656 C 5.546875 6.128906 5.390625 6.632812 5.390625 7.242188 C 5.390625 7.859375 5.542969 8.367188 5.847656 8.765625 C 6.179688 9.207031 6.640625 9.425781 7.234375 9.425781 C 7.824219 9.425781 8.285156 9.203125 8.613281 8.757812 C 8.917969 8.359375 9.074219 7.851562 9.074219 7.242188 Z M 9.074219 7.242188 "/>
<path style=" stroke:none;fill-rule:nonzero;fill:rgb(0%,0%,0%);fill-opacity:1;" d="M 87.738281 130.933594 C 87.738281 129.238281 88.035156 127.859375 88.628906 126.796875 C 89.371094 125.46875 90.515625 124.800781 92.0625 124.800781 C 92.964844 124.800781 93.710938 124.980469 94.300781 125.34375 C 95.011719 125.789062 95.367188 126.445312 95.367188 127.308594 C 95.367188 127.5 95.234375 127.59375 94.972656 127.59375 L 93.785156 127.59375 C 93.632812 127.59375 93.5 127.503906 93.394531 127.328125 C 93.234375 127.0625 93.109375 126.890625 93.023438 126.816406 C 92.804688 126.636719 92.484375 126.546875 92.0625 126.546875 C 91.351562 126.546875 90.796875 126.882812 90.402344 127.554688 C 90.089844 128.09375 89.917969 128.761719 89.878906 129.550781 C 90.503906 129.046875 91.253906 128.796875 92.125 128.796875 C 93.234375 128.796875 94.117188 129.191406 94.773438 129.980469 C 95.394531 130.722656 95.703125 131.664062 95.703125 132.808594 C 95.703125 134.011719 95.363281 134.960938 94.683594 135.660156 C 94.003906 136.363281 93.074219 136.714844 91.894531 136.714844 C 89.121094 136.714844 87.738281 134.785156 87.738281 130.933594 Z M 89.925781 132.757812 C 89.925781 133.347656 90.085938 133.851562 90.402344 134.261719 C 90.75 134.714844 91.203125 134.945312 91.765625 134.945312 C 92.34375 134.945312 92.800781 134.722656 93.144531 134.277344 C 93.453125 133.871094 93.609375 133.367188 93.609375 132.757812 C 93.609375 132.140625 93.457031 131.632812 93.152344 131.234375 C 92.820312 130.792969 92.359375 130.574219 91.765625 130.574219 C 91.175781 130.574219 90.714844 130.796875 90.386719 131.242188 C 90.082031 131.640625 89.925781 132.148438 89.925781 132.757812 Z M 89.925781 132.757812 "/>
</g>
</svg>

<svg xmlns="http://www.w3.org/2000/svg" width="99" height="140"><path d="M9.298 719.743h215.404c4.93 0 8.92 4.005 8.92 8.938v314.362c0 4.934-3.99 8.938-8.92 8.938H9.298c-4.93 0-8.92-4.004-8.92-8.938V728.681c0-4.933 3.99-8.938 8.92-8.938Zm0 0" style="fill-rule:nonzero;fill:#fff;fill-opacity:1;stroke-width:.755906;stroke-linecap:butt;stroke-linejoin:miter;stroke:gray;stroke-opacity:1;stroke-miterlimit:4" transform="matrix(.42308 0 0 .42042 0 -302.435)"/><path d="M19.34 67.883c0-.703-.04-1.207-.04-1.91h4.497V62.52c-2.848.093-5.93.3-8.598-.868-2.062-1.125-2.633-3.746-2.215-5.898.356-2.434 1.715-4.59 3.489-6.254 2.308-2.453 5.254-4.113 8.328-5.445 3.137 1.355 6.148 3.066 8.484 5.586 2.11 1.968 3.512 4.746 3.469 7.656.043 2.101-1.266 4.32-3.426 4.781-2.414.664-4.86.547-7.34.442v3.453h4.254c0 .703.04 1.207.04 1.91-3.34-.024-7.337-.024-10.942 0ZM19.34 72.117c0 .703-.04 1.207-.04 1.91h4.497v3.453c-2.848-.093-5.93-.3-8.598.868-2.062 1.125-2.633 3.746-2.215 5.898.356 2.434 1.715 4.59 3.489 6.254 2.308 2.453 5.254 4.113 8.328 5.445 3.137-1.355 6.148-3.066 8.484-5.586 2.11-1.968 3.512-4.746 3.469-7.656.043-2.101-1.266-4.32-3.426-4.781-2.414-.664-4.86-.547-7.34-.442v-3.453h4.254c0-.703.04-1.207.04-1.91-3.34.024-7.337.024-10.942 0ZM68.73 67.883c0-.703-.039-1.207-.039-1.91h4.496V62.52c-2.847.093-5.93.3-8.597-.868-2.063-1.125-2.633-3.746-2.215-5.898.355-2.434 1.715-4.59 3.488-6.254 2.309-2.453 5.254-4.113 8.328-5.445 3.137 1.355 6.149 3.066 8.485 5.586 2.105 1.968 3.511 4.746 3.469 7.656.043 2.101-1.266 4.32-3.426 4.781-2.414.664-4.86.547-7.34.442v3.453h4.254c0 .703.039 1.207.039 1.91-3.34-.024-7.336-.024-10.942 0ZM68.73 39.82c0-.703-.039-1.207-.039-1.91h4.496v-3.453c-2.847.094-5.93.3-8.597-.867-2.063-1.125-2.633-3.746-2.215-5.899.355-2.433 1.715-4.59 3.488-6.253 2.309-2.454 5.254-4.11 8.328-5.446 3.137 1.356 6.149 3.067 8.485 5.586 2.105 1.969 3.511 4.746 3.469 7.656.043 2.102-1.266 4.32-3.426 4.782-2.414.664-4.86.547-7.34.441v3.453h4.254c0 .703.039 1.207.039 1.91-3.34-.023-7.336-.023-10.942 0ZM19.34 39.82c0-.703-.04-1.207-.04-1.91h4.497v-3.453c-2.848.094-5.93.3-8.598-.867-2.062-1.125-2.633-3.746-2.215-5.899.356-2.433 1.715-4.59 3.489-6.253 2.308-2.454 5.254-4.11 8.328-5.446 3.137 1.356 6.148 3.067 8.484 5.586 2.11 1.969 3.512 4.746 3.469 7.656.043 2.102-1.266 4.32-3.426 4.782-2.414.664-4.86.547-7.34.441v3.453h4.254c0 .703.04 1.207.04 1.91-3.34-.023-7.337-.023-10.942 0ZM44.035 81.914c0-.703-.039-1.207-.039-1.91h4.496V76.55c-2.847.094-5.93.3-8.597-.867-2.063-1.125-2.633-3.746-2.215-5.899.355-2.433 1.715-4.594 3.488-6.254 2.309-2.453 5.254-4.113 8.328-5.445 3.137 1.355 6.149 3.066 8.484 5.586 2.11 1.969 3.512 4.746 3.47 7.656.042 2.102-1.266 4.32-3.427 4.777-2.414.668-4.859.551-7.34.446v3.453h4.255c0 .703.039 1.207.039 1.91-3.34-.023-7.336-.023-10.942 0ZM5.457 25.79c0-.235-.012-.403-.012-.638h1.5V24c-.949.031-1.976.102-2.867-.29-.687-.374-.879-1.245-.738-1.964.117-.812.57-1.531 1.164-2.086.77-.816 1.75-1.37 2.773-1.812 1.047.449 2.051 1.02 2.828 1.859.704.656 1.172 1.582 1.157 2.555.015.699-.422 1.437-1.14 1.59-.806.222-1.622.183-2.45.148v1.152h1.422c0 .235.011.403.011.637a283.894 283.894 0 0 0-3.648 0ZM19.34 100.18c0 .703-.04 1.207-.04 1.91h4.497v3.453c-2.848-.094-5.93-.3-8.598.867-2.062 1.125-2.633 3.746-2.215 5.899.356 2.433 1.715 4.59 3.489 6.254 2.308 2.453 5.254 4.109 8.328 5.445 3.137-1.356 6.148-3.067 8.484-5.586 2.11-1.969 3.512-4.746 3.469-7.656.043-2.102-1.266-4.32-3.426-4.782-2.414-.664-4.86-.546-7.34-.441v-3.453h4.254c0-.703.04-1.207.04-1.91-3.34.023-7.337.023-10.942 0ZM68.73 100.18c0 .703-.039 1.207-.039 1.91h4.496v3.453c-2.847-.094-5.93-.3-8.597.867-2.063 1.125-2.633 3.746-2.215 5.899.355 2.433 1.715 4.59 3.488 6.254 2.309 2.453 5.254 4.109 8.328 5.445 3.137-1.356 6.149-3.067 8.485-5.586 2.105-1.969 3.511-4.746 3.469-7.656.043-2.102-1.266-4.32-3.426-4.782-2.414-.664-4.86-.546-7.34-.441v-3.453h4.254c0-.703.039-1.207.039-1.91-3.34.023-7.336.023-10.942 0ZM68.73 72.117c0 .703-.039 1.207-.039 1.91h4.496v3.453c-2.847-.093-5.93-.3-8.597.868-2.063 1.125-2.633 3.746-2.215 5.898.355 2.434 1.715 4.59 3.488 6.254 2.309 2.453 5.254 4.113 8.328 5.445 3.137-1.355 6.149-3.066 8.485-5.586 2.105-1.968 3.511-4.746 3.469-7.656.043-2.101-1.266-4.32-3.426-4.781-2.414-.664-4.86-.547-7.34-.442v-3.453h4.254c0-.703.039-1.207.039-1.91-3.34.024-7.336.024-10.942 0ZM89.898 114.21c0 .235-.011.403-.011.638h1.5V116c-.95-.031-1.977-.102-2.867.29-.688.374-.88 1.245-.739 1.964.117.812.57 1.531 1.164 2.086.77.816 1.75 1.37 2.774 1.812 1.047-.449 2.05-1.02 2.828-1.859.703-.656 1.172-1.582 1.156-2.555.016-.699-.422-1.437-1.14-1.59-.805-.222-1.622-.183-2.45-.148v-1.152h1.422c0-.235.012-.403.012-.637-1.113.008-2.445.008-3.649 0ZM11.262 9.066c0 1.696-.297 3.075-.89 4.137-.743 1.328-1.888 1.996-3.434 1.996-.903 0-1.649-.18-2.239-.543-.71-.445-1.066-1.101-1.066-1.965 0-.191.133-.285.394-.285h1.188c.152 0 .285.09.39.266.16.265.286.437.372.512.218.18.539.27.96.27.711 0 1.266-.337 1.66-1.009.313-.539.485-1.207.524-1.996-.625.504-1.375.754-2.246.754-1.11 0-1.992-.394-2.648-1.183-.622-.743-.93-1.684-.93-2.829 0-1.203.34-2.152 1.02-2.851.68-.703 1.609-1.055 2.788-1.055 2.774 0 4.157 1.93 4.157 5.781ZM9.074 7.242c0-.59-.16-1.094-.476-1.504-.348-.453-.801-.683-1.364-.683-.578 0-1.035.222-1.379.668-.308.406-.464.91-.464 1.52 0 .616.152 1.124.457 1.523.332.441.793.66 1.386.66.59 0 1.051-.223 1.38-.668.304-.399.46-.906.46-1.516ZM87.738 130.934c0-1.696.297-3.075.89-4.137.743-1.328 1.888-1.996 3.434-1.996.903 0 1.649.18 2.239.543.71.445 1.066 1.101 1.066 1.965 0 .191-.133.285-.394.285h-1.188c-.152 0-.285-.09-.39-.266-.16-.266-.286-.437-.372-.512-.218-.18-.539-.27-.96-.27-.711 0-1.266.337-1.66 1.009-.313.539-.485 1.207-.524 1.996.625-.504 1.375-.754 2.246-.754 1.11 0 1.992.394 2.648 1.183.622.743.93 1.684.93 2.829 0 1.203-.34 2.152-1.02 2.851-.68.703-1.609 1.055-2.788 1.055-2.774 0-4.157-1.93-4.157-5.781Zm2.188 1.824c0 .59.16 1.094.476 1.504.348.453.801.683 1.364.683.578 0 1.035-.222 1.379-.668.308-.406.464-.91.464-1.52 0-.616-.152-1.124-.457-1.523-.332-.441-.793-.66-1.386-.66-.59 0-1.051.223-1.38.668-.304.399-.46.906-.46 1.516Zm0 0" style="stroke:none;fill-rule:nonzero;fill:#000;fill-opacity:1"/></svg>
